X:1108
T:Paddy "Go Easy"
R:double jig
N:"collected by F.O'Neill"
B:O'Neill's 1108
Z:Transcribed by henrik.norbeck@mailbox.swipnet.se
M:6/8
L:1/8
K:Edor
F/E/|DEF GFEF|AFF F2E|DEF GFEF|AFE E2F|
DEF GFEF|AFA d2d|cBA BAF|AFE E2:|
f|ecA ABA|ecA A2f|ecA Ace|fdB B2f|
ecA fdB|ecA agf|ecA BAF|AFE E2:|
d|dFF GFEF|AFF F2d|dFF GFEF|AFE E2d|
dFF GFEF|AFA d2d|cBA BAF|AFE E2:|
